Papirus/64x64/apps/custom-toolbox.svg

<svg width="64" height="64" version="1.1" xmlns="http://www.w3.org/2000/svg">
 <g transform="translate(.1992188)">
  <rect x="4" y="5" width="56" height="56" rx="2.8" ry="2.8" style="opacity:.2"/>
  <rect x="4" y="4" width="56" height="56" rx="2.8" ry="2.8" style="fill:#4f4f4f"/>
  <path d="M 6.8007812,4 C 5.2495813,4 4,5.2495813 4,6.8007812 v 1 C 4,6.2495813 5.2495813,5 6.8007812,5 H 57.199219 C 58.750419,5 60,6.2495813 60,7.8007812 v -1 C 60,5.2495813 58.750419,4 57.199219,4 Z" style="fill:#ffffff;opacity:.1"/>
  <path d="M 23,17 19,21 30.041016,33.421875 27.810547,36.044922 25,33 10,50 H 54 L 44,38 42.841797,39.322266 35.626953,31.205078 46,19 44,17 33.734375,29.076172 Z M 31.933594,35.550781 39.09375,43.605469 37,46 29.738281,38.132812 Z" style="opacity:.2"/>
  <path d="M 23,16 19,20 30.041016,32.421875 27.810547,35.044922 25,32 10,49 H 54 L 44,37 42.841797,38.322266 35.626953,30.205078 46,18 44,16 33.734375,28.076172 Z M 31.933594,34.550781 39.09375,42.605469 37,45 29.738281,37.132812 Z" style="fill:#ffffff"/>
 </g>
 <path d="M 62.958,45.848 A 16,16 0 0 1 47,61 16,16 0 0 1 31.042,46.152 16,16 0 0 0 31,47 16,16 0 0 0 47,63 16,16 0 0 0 63,47 16,16 0 0 0 62.958,45.848 Z" style="fill-rule:evenodd;opacity:.2"/>
 <circle cx="47" cy="46" r="16" style="fill:#8561c5"/>
 <path d="m44.928 38-0.1764 2.1072a6.2858 6.2858 0 0 0-1.83704 1.06252l-1.91518-0.9018-2 3.4642 1.73882 1.2076a6.2858 6.2858 0 0 0-0.096 1.06026 6.2858 6.2858 0 0 0 0.0914 1.06474l-1.734 1.204 2 3.4642 1.91072-0.89956a6.2858 6.2858 0 0 0 1.8415 1.0558l0.1764 2.1116h4l0.1764-2.1072a6.2858 6.2858 0 0 0 1.83708-1.06252l1.91516 0.9018 2-3.4642-1.73884-1.2076a6.2858 6.2858 0 0 0 0.096-1.06026 6.2858 6.2858 0 0 0-0.0914-1.06474l1.73438-1.20312-2-3.4642-1.91072 0.89956a6.2858 6.2858 0 0 0-1.84152-1.0558l-0.1764-2.1116h-4zm2 5.7144a2.2858 2.2858 0 0 1 2.286 2.286 2.2858 2.2858 0 0 1-2.286 2.286 2.2858 2.2858 0 0 1-2.286-2.286 2.2858 2.2858 0 0 1 2.286-2.286z" style="fill:#ffffff"/>
</svg>

<svg xmlns="http://www.w3.org/2000/svg" width="64" height="64" version="1.1">
 <rect style="opacity:0.2" width="56" height="56" x="4" y="5" rx="2.8" ry="2.8"/>
 <rect style="fill:#4f4f4f" width="56" height="56" x="4" y="4" rx="2.8" ry="2.8"/>
 <path style="fill:#ffffff;opacity:0.1" d="M 6.8008 4 C 5.2496 4 4 5.2496 4 6.8008 L 4 7.8008 C 4 6.2496 5.2496 5 6.8008 5 L 57.199 5 C 58.75 5 60 6.2496 60 7.8008 L 60 6.8008 C 60 5.2496 58.75 4 57.199 4 L 6.8008 4 z"/>
 <path style="opacity:0.2" d="M 23,17 19,21 30.041,33.422 27.811,36.045 25,33 10,50 H 54 L 44,38 42.842,39.322 35.627,31.205 46,19 44,17 33.734,29.076 Z M 31.934,35.551 39.094,43.605 37,46 29.738,38.133 Z"/>
 <path style="fill:#ffffff" d="M 23,16 19,20 30.041,32.422 27.811,35.045 25,32 10,49 H 54 L 44,37 42.842,38.322 35.627,30.205 46,18 44,16 33.734,28.076 Z M 31.934,34.551 39.094,42.605 37,45 29.738,37.133 Z"/>
 <circle style="opacity:0.2" cx="47" cy="47" r="16"/>
 <circle style="fill:#318e9e" cx="47" cy="46" r="16"/>
 <path style="fill:#ffffff" d="M 44.928,38 44.752,40.107 A 6.2858,6.2858 0 0 0 42.915,41.17 L 40.999,40.268 38.999,43.732 40.738,44.94 A 6.2858,6.2858 0 0 0 40.642,46 6.2858,6.2858 0 0 0 40.734,47.065 L 39,48.269 41,51.733 42.91,50.833 A 6.2858,6.2858 0 0 0 44.752,51.889 L 44.928,54.001 H 48.928 L 49.105,51.894 A 6.2858,6.2858 0 0 0 50.942,50.831 L 52.857,51.733 54.857,48.269 53.118,47.061 A 6.2858,6.2858 0 0 0 53.214,46.001 6.2858,6.2858 0 0 0 53.123,44.936 L 54.857,43.733 52.857,40.269 50.946,41.168 A 6.2858,6.2858 0 0 0 49.105,40.112 L 48.928,38.001 H 44.928 Z M 46.928,43.714 A 2.2858,2.2858 0 0 1 49.214,46 2.2858,2.2858 0 0 1 46.928,48.286 2.2858,2.2858 0 0 1 44.642,46 2.2858,2.2858 0 0 1 46.928,43.714 Z"/>
</svg>
